Sources/FrostedUI/Resources/Icons.xcassets/calendarX16.imageset/calendar-x-16.svg

<svg width="16" height="16" viewBox="0 0 16 16" fill="none" xmlns="http://www.w3.org/2000/svg" data-fui-icon="true">
  <path
    d="M10.833 1.08301C11.2471 1.08301 11.5829 1.41891 11.583 1.83301V2.41602H12.167C13.3174 2.41619 14.2499 3.34963 14.25 4.5V12.166C14.25 13.3165 13.3175 14.2498 12.167 14.25H3.83301C2.68257 14.2498 1.75 13.3165 1.75 12.166V4.5C1.75013 3.34963 2.68265 2.41619 3.83301 2.41602H4.41699V1.83301C4.41712 1.41891 4.75286 1.08301 5.16699 1.08301C5.58097 1.08318 5.91686 1.41901 5.91699 1.83301V2.41602H10.083V1.83301C10.0831 1.41902 10.419 1.08318 10.833 1.08301ZM3.83301 3.91602C3.51107 3.91619 3.25013 4.17805 3.25 4.5V12.166C3.25 12.4881 3.51098 12.7498 3.83301 12.75H12.167C12.489 12.7498 12.75 12.4881 12.75 12.166V4.5C12.7499 4.17805 12.4889 3.91619 12.167 3.91602H3.83301ZM9.1377 6.13574C9.43055 5.84328 9.90546 5.84317 10.1982 6.13574C10.491 6.42851 10.4908 6.90337 10.1982 7.19629L9.06055 8.33398L10.1973 9.4707C10.4897 9.76352 10.4897 10.2384 10.1973 10.5312C9.90437 10.8241 9.42863 10.8241 9.13574 10.5312L7.99902 9.39453L6.86328 10.5312C6.57037 10.8239 6.09554 10.8241 5.80273 10.5312C5.51012 10.2384 5.51016 9.76355 5.80273 9.4707L6.93848 8.33398L5.80176 7.19629C5.50914 6.90337 5.50896 6.42854 5.80176 6.13574C6.09458 5.84323 6.56949 5.84322 6.8623 6.13574L8 7.27344L9.1377 6.13574Z"
    fill="currentColor"
  />
</svg>

<svg xmlns="http://www.w3.org/2000/svg" width="16" height="16" fill="none" data-fui-icon="true" viewBox="0 0 16 16"><path fill="currentColor" d="M10.833 1.083a.75.75 0 0 1 .75.75v.583h.584c1.15 0 2.083.934 2.083 2.084v7.666c0 1.15-.932 2.084-2.083 2.084H3.833a2.084 2.084 0 0 1-2.083-2.084V4.5c0-1.15.933-2.084 2.083-2.084h.584v-.583a.75.75 0 0 1 1.5 0v.583h4.166v-.583a.75.75 0 0 1 .75-.75m-7 2.833a.584.584 0 0 0-.583.584v7.666c0 .322.261.584.583.584h8.334a.584.584 0 0 0 .583-.584V4.5a.584.584 0 0 0-.583-.584zm5.305 2.22a.75.75 0 0 1 1.06 1.06L9.061 8.334l1.136 1.137a.75.75 0 0 1-1.061 1.06L7.999 9.395 6.863 10.53a.75.75 0 0 1-1.06-1.06l1.135-1.137-1.136-1.138a.75.75 0 0 1 1.06-1.06L8 7.273z"/></svg>
